images/m.svg

<svg width="71" height="94" viewBox="0 0 71 94" fill="none" xmlns="http://www.w3.org/2000/svg">
<circle cx="35" cy="31" r="30" fill="#26A37A"/>
<path d="M11.1328 17.125H22.3047L35 56.6953L47.6953 17.125H58.8672L39.5312 74H30.4688L11.1328 17.125ZM4.33594 17.125H15.8984L18.0469 60.7188V74H4.33594V17.125ZM54.1016 17.125H65.7031V74H51.9531V60.7188L54.1016 17.125Z" fill="#EAEAEA"/>
</svg>

<svg width="71" height="94" fill="none" xmlns="http://www.w3.org/2000/svg"><circle cx="35" cy="31" r="30" fill="#26A37A"/><path d="M11.133 17.125h11.172L35 56.695l12.695-39.57h11.172L39.531 74H30.47L11.133 17.125zm-6.797 0h11.562l2.149 43.594V74H4.336V17.125zm49.766 0h11.601V74h-13.75V60.719l2.149-43.594z" fill="#EAEAEA"/></svg>
